assets/symbols/mulberry/carton_1.svg

<svg height="850.394" viewBox="0 0 850.394 850.394" width="850.394" xmlns="http://www.w3.org/2000/svg"><g fill="#fff5b4"><path d="m601.57 210.31 3.87-.36v543.27l-259.85 37.56v-556.85z"/><path d="m600.57 192.32 1 17.99-255.98 23.62-50.26-102.51.21-.02 260.22-21.4zm-44.81-82.32-260.22 21.4-.21-2.55v-34.27s2.28-17.99 17.99-17.99c15.7 0 227.01-15.71 227.01-15.71s12.86 3.44 12.86 12.86 2.57 36.26 2.57 36.26zm-210.17 123.93v556.85l-94.24-77.1v-526.58z"/><path d="m295.33 131.42 50.26 102.51-94.24-46.83-2.04-.24 1.26-10.69z"/></g><g fill="none"><path d="m345.59 790.78v-556.85l-94.24-46.83v526.58l94.24 77.1 259.85-37.56v-543.27l-3.87.36-255.98 23.62m-97.38-55.4 2.36-2.36 44.76-44.75.21-.02 260.22-21.4 44.81 82.32 6.37 11.7m-311.61-72.6 50.26 102.51m-50.26-105.08v-34.27s2.28-17.99 17.99-17.99c15.7 0 227.01-15.71 227.01-15.71s12.86 3.44 12.86 12.86 2.569 36.26 2.569 36.26" stroke="#231f20" stroke-width="21"/><path d="m0 0h850.394v850.394h-850.394z"/></g></svg>

<svg xmlns="http://www.w3.org/2000/svg" width="850.394" height="850.394" viewBox="0 0 850.394 850.394" overflow="visible"><g fill="#fff5b4"><path d="M601.57 210.31l3.87-.36v543.27l-259.85 37.56V233.93z"/><path d="M600.57 192.32l1 17.99-255.98 23.62-50.26-102.51.21-.02L555.76 110zM555.76 110l-260.22 21.4-.21-2.55V94.58s2.28-17.99 17.99-17.99c15.7 0 227.01-15.71 227.01-15.71s12.86 3.44 12.86 12.86 2.57 36.26 2.57 36.26zM345.59 233.93v556.85l-94.24-77.1V187.1z"/><path d="M295.33 131.42l50.26 102.51-94.24-46.83-2.04-.24 1.26-10.69z"/></g><g fill="none" stroke="#231f20" stroke-width="21"><path d="M345.59 790.78V233.93l-94.24-46.83v526.58l94.24 77.1 259.85-37.56V209.95l-3.87.36-255.98 23.62M248.21 178.53l2.36-2.36 44.76-44.75.21-.02L555.76 110l44.81 82.32 6.37 11.7M295.33 131.42l50.26 102.51M295.33 128.85V94.58s2.28-17.99 17.99-17.99c15.7 0 227.01-15.71 227.01-15.71s12.86 3.44 12.86 12.86 2.569 36.26 2.569 36.26"/></g><path fill="none" d="M0 0h850.394v850.394H0z"/></svg>
